X: 70
%
U:~=!turn!
T: The Burnt Leg
C:Skye tune
O:Scotland
B:Keith Norman MacDonald : "The Skye collection of the best reels & strathspeys extant" : 1887
Z:Ralph Palmer
R:Reel
M:C
L:1/8
K:E dorian
F | (E<e) e2 f<e dB | defa efd<B | (B<e) e2 f<edB | dBAF (.E<.E .E) :|
z |: G(.F.F)E DEFA | B<BdB AB d<e | fedA DEFA | [1 BdAF (.E<.E .E2) :| [2 BdAF (.E<.E .E) |]


